X: 1
T: Allan Water
O: Trad
N: Highland Whisky handwritten ms.
Z: John Chambers <jc:trillian.mit.edu>
M: C
L: 1/8
K: G
{f}g2 \
| "G"G3 A "(Em)"B2 ge | "(Am)"d<B AG "D"A2 GE | "G"D>E GA "Em"B>A Bd | "C"eB dA "D"B2 :|
g>a \
| "G"b>a ge d2 ba | "C"ge dB "D"A2 GE | "G"g>a ge "Em"d<B ge | "Am"d<B AG "D"Bd g>a |
| "Em"(3bag (3age "D"(3ged ba | "C"g>e dB "D"A2 g2 | "G"d<B A>G "Em"DE GA | "D7"B3 A "G"G2 |]
